!!!OTL: 608. Liebesbetheuerung.
!!!ARE: Europa, Mitteleuropa, Deutschland, Ober - Hessen; Nassau
!!!SCT: E0608
!!!TXL: @@DE
!!!YEM: Copyright 1995, estate of Helmut Schaffrath.
**kern	**text
*ICvox	*
*M4/4	*
*met(c)	*
*k[f#c#g#]	*
*A:	*
!LO:TX:a:t=Innig.	!
!LO:TX:a:t=Aus dem Naſſauiſchen und Oberheſſen.	!
{8e	Ich
8f#	lie-
8g#	-be
=1	=1
4.a	dich,
8a	ſo
8cc#	lang
8cc#	ich
8b/	le-
8a	-ben
=2	=2
8bL	wer-
8eJ	.
4e	-de,
8r}	.
{8e	ſo
8f#	lang
8g#	ein
=3	=3
4.a	Herʒ
8a	in
8cc#	mei-
8cc#	-nem
8b/	Bu-
8a	-ſen
=4	=4
2b	ſchlägt,
8r}	.
{8b	ſo
8.b	lang
16cc#	ein
=5	=5
4.dd	Gott
8cc#	re-
8b	-giert
8dd	auf
8ff#	die-
8ee	-ſer
=6	=6
8eeL	Er-
8cc#J	.
4cc#	-de,
8r}	.
{8a	bis
8ff#	Got-
8ee	-tes
=7	=7
8.ee	En-
16dd	-gel
8dd	einſt
8e	die
4cc#	Tod-
4b	-ten
=8	=8
2a	weckt!
8r}	.
==	==
!!!AGN: Liebes - Lied
!!!ONB: ESAC (Essen Associative Code) Database: ERK1
!!!AMT: simple quadruple
!!!AIN: vox
!!!EED: Helmut Schaffrath
!!!EEV: 1.0
!!!GTL: Liebeslieder [Neuere (aus dem 18. bis 19. Jahrh.) - Liebeslust]
!!!URL-scan: https://rosdok.uni-rostock.de/mcrviewer/recordIdentifier/rosdok_ppn745177662/iview2/phys_0430.iview2?x=-128.77276441889308&y=1662.5682129461784&scale=0.5870222003877485&rotation=0&layout=singlePageLayout
!!!ENC: Anna Maria Matuszewska
!!!EEV: 2024/11/12
*-	*-
